!!!!SEGMENT: pl-wn--mus-iii-105-719-1--014_zelenski-wladyslaw--25-preludyi-op-38-14-andantino-na-temat-ludowy.krn
!!!cenid: 18xx:3747
!!!COM: Żeleński, Władysław
!!!COM-rismID: pe41024455
!!!CDT: 1837/07/06-1921/01/23
!!!CNT: Polish
!!!GTL: 25 preludyi op. 38
!!!OTL: 14. Andantino. Na temat ludowy
!!!PDT: 1881
!!!AGN:
!!!SMS-siglum: PL-Wn
!!!SMS-shelfmark: Mus.III.105.719/1
!!!SMS-shelfwork: 014 G
!!!SMS-variant:
!!!SMS-altvar:
!!!NIFC-rismSourceID:
!!!NIFC-islandoraID:
!!!URL-pdf-islandora:
!!!URL-scan: https://polona.pl/item/25-preludyi-2-3-i-4-glosowych-na-organ-lub-fisharmonike-do-uzytku-organistow-i,ODE1NjEwMzc/2 @EN{Scan on Polona} @PL{Skany w portalu Polona}
!!!ONB-nifc:
!!!AIN: 1 empty
!!!key: f#
**kern	**fing	**kern	**fing	**dynam
*part1	*part1	*part1	*part1	*part1
*staff2	*	*staff1	*	*
*Iempty	*	*Iempty	*	*
*	*	*I"organ lub fisharmonika	*	*
*	*	*I'org	*	*
*	*	*ICklav	*	*
*clefF4	*	*clefG2	*	*
*k[f#c#g#]	*	*k[f#c#g#]	*	*
*f#:	*	*f#:	*	*
*M3/8	*	*M3/8	*	*
=1	=1	=1	=1	=1
*^	*	*	*	*
!	!	!	!LO:TX:a:i:t=Andantino. Na temat ludowy.	!	!
4.rGG	(8F#/L	4	4.r	.	p
.	8A/	.	.	.	.
.	8B/J	.	.	.	.
=2	=2	=2	=2	=2	=2
*	*	*below	*	*	*
!LO:TX:b:i:t=vibr.	!	!	!	!	!
!	!	!	!	!	!LO:HP:b=2
4.rBB	8c#;>/L	2	4ryy	.	<
.	16B/L	1	.	.	.
.	16A/	.	.	.	.
!	!	!	!	!	!LO:HP:b=2
.	16G#/	.	8ryy	.	[ >
.	16F#/JJ	.	.	.	]]
=3	=3	=3	=3	=3	=3
*	*	*above	*	*	*
!	!LO:SIC:v:o:t=łuk między cyframi palcowania	!	!	!	!
4.rGG	[>4.E/	5	4.r	.	.
.	.	1	.	.	.
=4	=4	=4	=4	=4	=4
*	*	*	*	*below	*
8E/L]	([4.AA\	.	(>8f#/L	2	pp
16D/L	.	2	8a/	1	.
16C#/J	.	3	.	.	.
8D/J	.	1	8b/J	.	.
=5	=5	=5	=5	=5	=5
8E/L	4.AA\]	2	8cc#/L	.	.
8E#X/	.	1	16b/L	.	.
.	.	.	16a/	.	.
8F#/J	.	2	16g#/	3	.
.	.	.	16f#/JJ	.	.
=6	=6	=6	=6	=6	=6
*	*	*^	*	*	*
8Gn/L	8AA#X\L	1	4	[4.e/	1	<[
16F#/L	8BB\	2	5	.	.	.
16E/	.	1	.	.	.	.
16F#/	8Cn\J	2	4	.	.	.
16G#X/JJ	.	1	.	.	.	.
=7	=7	=7	=7	=7	=7	=7
8A/L	(4.BB\)	1	5	8e/L]	.	.
*	*	*v	*v	*	*	*
16F#/L	.	.	8d#X/	2	.
16G#/J	.	.	.	.	.
[8A/J	.	.	8f#/J	4	.
=8	=8	=8	=8	=8	=8
*	*	*below	*	*	*
8A/]	4E\)	3	4e/	2	>
4G#/	.	.	.	.	.
.	(8C#\	5	8e#X/	3	]]
=9	=9	=9	=9	=9	=9
8A/)	8F#\)	.	8f#/L)	4	p
8r	4ryy	.	(>8a/	1	.
8r	.	.	8b/J	.	.
*v	*v	*	*	*	*
=10	=10	=10	=10	=10
4.r	.	8cc#;/L	.	<
.	.	16b/L	.	.
.	.	16a/	.	[ >
.	.	16g#/	.	.
.	.	16f#/JJ	.	]]
=11	=11	=11	=11	=11
*	*	*^	*	*
*	*	*	*	*above	*
!	!	!	!LO:SIC:v:o:t=łuk między cyframi palcowania	!	!
4.r	.	4.rD	4.e/	1	.
.	.	.	.	2	.
=12	=12	=12	=12	=12	=12
(8F#\L	4	[4.a/)	(8e\L	.	.
8A\	.	.	16d\L	1	.
.	.	.	16c#\J	2	.
8B\J	1	.	8d\J	1	.
=13	=13	=13	=13	=13	=13
*	*	*	*	*below	*
8c#\L	2	(4.a/]	8e\L	2	.
16B\L	1	.	8e#X\	1	.
16A\	.	.	.	.	.
16G#\	.	.	8f#\J	2	.
16F#\JJ	.	.	.	.	.
=14	=14	=14	=14	=14	=14
*	*	*	*	*^	*
8E\L	1	8a#X/L	8gn\L	3	1	.
8D#X\	2	8b/	16f#\L	4	2	.
.	.	.	16e#X\	.	1	.
8Dn\J	1	8b#X/J	16f#\	5	2	.
.	.	.	16g#X\JJ	.	3	.
=15	=15	=15	=15	=15	=15	=15
8C#/L	2	8cc#/L	8a\L	4	1	.
8BB/	3	8dd/	16g#\L	5	3	.
.	.	.	16f#\J	.	2	.
8C#/J	2	16g#/L	8e#X\J	3	1	.
.	.	16bn/JJ	.	5	.	.
*	*	*	*	*v	*v	*
!!LO:LB:g=original
=16	=16	=16	=16	=16	=16
*	*	*	*	*above	*
[4.FF#\)	5	16a/LL	8f#\)	4	.
.	.	16g#/J	.	3	.
!	!	!LO:TX:b:i:t=dolce	!	!	!
.	.	8f#/	8r	2	.
.	.	16e/L	8r	1	.
.	.	16d/JJ	.	3	.
*	*	*v	*v	*	*
=17	=17	=17	=17	=17
*^	*	*	*	*
4.r	4.FF#\_	.	16c#/LL	2	.
.	.	.	16B#X/J	1	.
.	.	.	8f#/	5	.
.	.	.	16d/L	4	.
.	.	.	16Bn/JJ	2	.
=18	=18	=18	=18	=18	=18
*	*	*above	*	*	*
!LO:SIC:v:o=klamra pionowa	!	!	!	!	!
(16A/LL	4.FF#\_	1	8c#/L)	3	.
16G#/J	.	2	.	.	.
!LO:SI:v:o=klamra pionowa	!	!	!	!	!
8F#/	.	1	(8f#/	2	.
16E/L	.	1	8g#/J	3	.
16D/JJ	.	2	.	.	.
=19	=19	=19	=19	=19	=19
16C#/LL	4.FF#\_	3	8a/L	4	.
16BB#X/J	.	3	.	.	.
8F#/	.	1	8f#/	2	.
16D/L	.	2	8g#/J	3	.
16BBn/JJ	.	3	.	.	.
*v	*v	*	*	*	*
=20	=20	=20	=20	=20
8FF#/]) 8C#/	2	8a\L)	4	<
8r	.	(8cc#\	3	.
8r	.	8dd#X\J	.	[[
=21	=21	=21	=21	=21
*^	*	*	*	*
4.rBB	8r	.	8ee\L	.	.
!	!	!	!	!	!LO:HP:b=2
.	(>8c#/L	3	16dd#X\L	.	<
.	.	.	16cc#\	.	.
.	8d#X/J	.	16b\	.	.
.	.	.	16a\JJ	.	[
=22	=22	=22	=22	=22	=22
!	!	!	!LO:SIC:v:o:t=łuk między cyframi palcowania	!	!
4.rBB	8e/L	.	4.gn/	2	.
.	16dn/L	.	.	5	.
.	16c#/	.	.	.	.
.	16B/	.	.	.	.
.	16A#X/JJ)	.	.	.	.
*v	*v	*	*	*	*
=23	=23	=23	=23	=23
*	*	*^	*	*
*	*	*	*	*^	*
8r	.	[4.f#/	8e\L	4	1	.
(8F#\L	3	.	8d#X\	.	2	<
8G#\J	.	.	8dn\J	.	1	.
=24	=24	=24	=24	=24	=24	=24
8A\L	.	4.f#/_	8c#\L	5	2	[
16G#\L	.	.	8B#X\	.	1	.
16F#\	.	.	.	.	.	.
16E\	.	.	8c#\J	.	2	.
16D#X\JJ	.	.	.	.	.	.
*	*	*	*	*v	*v	*
=25	=25	=25	=25	=25	=25
*	*below	*	*	*below	*
4G#\	1	4.f#/_	8d#X\L	4	>
.	.	.	8A#X\	2	.
8GG#/	.	.	8B#X\J	1	]
=26	=26	=26	=26	=26	=26
8C#\L)	.	8f#/L]	4c#\	.	.
*	*above	*	*	*	*
!	!	!	!	!	!LO:HP:b=2
(8G#\	3	8e/J)	.	.	<
8A#X\J	.	8r	8ryy	.	[[
=27	=27	=27	=27	=27	=27
8B\L	.	4.rF	8r	.	.
*	*	*	*	*above	*
16A#X\L	.	.	(>8g#/L	3	<
16G#\	.	.	.	.	.
16F#\	.	.	8a#X/J	.	.
16E\JJ	1	.	.	.	[
=28	=28	=28	=28	=28	=28
4.Dn\	.	4.rF	8b/L	.	.
.	.	.	16an/L	.	.
.	.	.	16g#/	.	.
.	.	.	16f#/	.	.
.	.	.	16e#X/JJ	.	.
!!LO:LB:g=original
=29	=29	=29	=29	=29	=29
([4.C#/)	.	8b/L)	8r	.	.
!	!	!LO:SIC:v:o=klamra pionowa	!	!	!
.	.	(8a#X/	8c#\L	1 4	<
.	.	8an/J	8d#X\J	2 5	[
=30	=30	=30	=30	=30	=30
8C#\L]	.	8g#/L	8e\L	1 3	.
8D#X\	.	8f##X/	16d#X\L	2	.
.	.	.	16c#\	1	.
*	*below	*	*	*	*
8E\J	5	8g#/J	16B\	3	.
.	.	.	16A#X\JJ	.	.
=31	=31	=31	=31	=31	=31
*	*	*	*	*^	*
!	!	!LO:SIC:v:o=klamra pionowa	!	!	!	!
8E#X\L	4	8g##X/L	4.c#\	4	1	.
8F#\	3	8a#X/	.	5	.	.
8F##X\J	1	8d#X/J	.	2	.	.
*	*	*	*	*v	*v	*
=32	=32	=32	=32	=32	=32
[<4.GG#\)	.	16b/LL	8B\	.	.
.	.	16a#X/J	.	.	.
.	.	8g#/	8r	.	.
.	.	16f#/L	8r	.	.
.	.	16e/JJ	.	.	.
*	*	*v	*v	*	*
=33	=33	=33	=33	=33
*^	*	*	*	*
4.r	4.GG#\_	.	16d/LL	.	.
.	.	.	16c##X/J	.	.
.	.	.	8g#/	.	.
.	.	.	16e/L	.	.
!	!	!	!LO:TX:t=P:problem=kasownik obok krzyżyka	!	!
.	.	.	16c#X/JJ	.	.
=34	=34	=34	=34	=34	=34
!	!	!	!LO:SIC:v:o=klamra pionowa	!	!
(16B/LL	4.GG#\_	.	8d#X/L)	.	.
16A#X/J	.	.	.	.	.
*	*	*above	*	*	*
8G#/	.	1	(8g#/	2	.
16F#/L	.	2	8a#X/J	3	.
16E/JJ	.	1	.	.	.
=35	=35	=35	=35	=35	=35
16D#X/LL	4.GG#\_	.	8b/L	4	.
16C##X/J	.	.	.	.	.
8G#/	.	.	8g#/	.	.
16E/L	.	.	8a#X/J	.	.
!LO:TX:t=P:problem=kasownik obok krzyżyka	!	!	!	!	!
16C#X/JJ	.	.	.	.	.
=36	=36	=36	=36	=36	=36
8D#X/)	4.GG#\]	.	8b\L)	.	.
8r	.	.	(8b\	1	<
8r	.	.	8cc#\J	.	[[
=37	=37	=37	=37	=37	=37
8r	4.rBB	.	8dd#X/L	.	.
!	!	!	!	!	!LO:HP:b=2
(8B/L	.	3	16cc#/L	.	<
.	.	.	16b/	.	.
8c#/J)	.	.	16a#X/	4	.
.	.	.	16g#/JJ	.	[[
*v	*v	*	*	*	*
=38	=38	=38	=38	=38
*	*	*^	*	*
*	*	*	*	*^	*
!	!	!	!LO:SIC:v:o:t=łuk między cyframi palcowania	!	!	!
8r	.	[4.f#/	8.dn\L	2	1	.
*	*below	*	*	*	*	*
(8AA#X\L	4	.	.	g	.	.
.	.	.	16c#\L	.	2	.
8C#\J	2	.	16B\	.	1	.
.	.	.	16A#X\JJ	.	1	.
*	*	*	*	*v	*v	*
=39	=39	=39	=39	=39	=39
!	!	!LO:SIC:v:o=pionowa klamra	!	!	!
[<4.BB\)	5	8f#/L])	8d\	.	p
.	.	(8b/	8r	2	<
.	.	8cc#/J	8r	3	.
*	*	*v	*v	*	*
=40	=40	=40	=40	=40
*^	*	*	*	*
8r	4.BB\_	.	8dd/L	4	.
!LO:TX:t=P:problem=mixed beam	!	!	!	!	!
8B/L	.	.	16cc#/L	3	[
.	.	.	16b/	5	.
!	!	!	!LO:SIC:v:o=klamra pionowa	!	!
8c#>\J	.	1	16a/	4	<
.	.	.	16gn/JJ	3	[[
*v	*v	*	*	*	*
!!LO:LB:g=original
=41	=41	=41	=41	=41
*	*	*^	*	*
!	!	!LO:TX:t=P:problem=mixed beam	!	!	!
*	*	*	*	*^	*
8BB\L]	.	[4.f#/	8d\L	2	1	.
8C#\	4	.	(16c#\L	5	2	.
.	.	.	16B\	.	1	.
8D\J	3	.	16F#</	.	2	.
.	.	.	16G#</JJ	.	1	.
*	*	*	*	*v	*v	*
*	*	*v	*v	*	*
=42	=42	=42	=42	=42
*^	*	*	*	*
*	*	*^	*	*	*
4A/)	[4.C#\	1	5	8f#/L])	.	.
*	*	*	*	*	*below	*
.	.	.	.	(8a/	1	<
(16G#/LL	.	2	.	8b/J	.	[[
16F#/JJ	.	3	.	.	.	.
*	*	*v	*v	*	*	*
=43	=43	=43	=43	=43	=43
*	*	*above	*	*	*
8E/L	4.C#\_	1	8cc#/L	.	.
8D#X/	.	4	16b/L	.	.
.	.	.	16a/	.	.
16E/L	.	3	16g#/	4	.
16F#/JJ	.	2	16f#/JJ	.	.
=44	=44	=44	=44	=44	=44
*	*	*^	*	*	*
4G#/	8C#\L]	1	.	4.e/	.	.
.	8BB\	.	5	.	.	.
[8Gn/	8AA#X\J	1	4	.	.	.
=45	=45	=45	=45	=45	=45	=45
!	!LO:SIC:v:o:t=łuk między cyframi palcowania	!	!	!	!	!
8G/L]	(4.BB\	.	5	8d/L)	.	.
8F#/	.	2	4	(>8f#/	3	<
16E/L	.	1	.	8g#/J	.	[[
16D/JJ	.	2	.	.	.	.
*	*	*v	*v	*	*	*
=46	=46	=46	=46	=46	=46
8C#/L	[4.FF#\)	3	8a/L	.	.
!	!	!	!	!	!LO:HP:b=2
8F#/)	.	.	16g#/L	4	<
.	.	.	16f#/	3	.
!	!	!	!LO:SIC:v:o=klamra pionowa	!	!
8G#/J	.	1	16e/	5	.
.	.	.	16d/JJ	4	[[
=47	=47	=47	=47	=47	=47
!	!	!	!LO:TX:a:i:t=espress.	!	!
*	*	*	*	*above	*
8A/L	8FF#\L]	1	4c#/	3	.
*	*	*^	*	*	*
8G#/	8EE\	2	3	.	.	.
8F#/J	8DD\J	1	4	16B#X/LL	4	.
*	*	*v	*v	*	*	*
.	.	.	16G#/JJ	2	.
=48	=48	=48	=48	=48	=48
!	!	!	!LO:SIC:v:o:t=łuk między cyframi palcowania	!	!
16E#X/LL	[4.CC#\	1	4c#/	5	p
16G#/JJ	.	2	.	4	.
*	*	*below	*	*	*
!	!LO:SIC:v:o:t=łuk między cyframi palcowania	!	!	!	!
4B/	.	1	.	.	.
.	.	2	16d#X/LL	3	<
.	.	.	16e#X/JJ	4	.
=49	=49	=49	=49	=49	=49
*	*	*above	*	*	*
!	!	!	!LO:SIC:v:o:t=łuk między cyframi palcowania	!	!
8A/L	4.CC#\_	1	4.f#/	5	.
8d/	.	3	.	.	.
8c#/J	.	2	.	4	.
=50	=50	=50	=50	=50	=50
!LO:TX:t=P:problem=mixed beam	!	!	!	!	!
*	*	*below	*	*	*
!	!	!	!LO:SIC:v:o:t=łuk między cyframi palcowania	!	!
8B#X/L	4.CC#\_	1	4.g#/	5	.
16d#X>\L	.	2	.	4	.
16f#>\	.	3	.	.	.
16e>\	.	1	.	.	.
16d#>\JJ	.	2	.	.	.
=51	=51	=51	=51	=51	=51
16c#>\LL	4.CC#\_<	1	4a/	5	.
16e>\J	.	2	.	.	.
8gn>\	.	1	.	.	.
16f#>\L	.	2	8a#X/	4	.
16e>\JJ	.	1	.	.	.
=52	=52	=52	=52	=52	=52
16d#X>\LL	4.CC#\_<	2	4b/	5	.
16f#>\	.	3	.	.	.
16a>\	.	1	.	.	.
16g#>\	.	2	.	.	.
16f#>\	.	1	[8b#X/	4	.
16a>\JJ	.	2	.	.	.
=53	=53	=53	=53	=53	=53
16g#>\LL	4CC#\]	1	8b#/L]	.	>
16f#>\	.	2	.	.	.
16e#X>\	.	2	8cc#/)	.	.
16d>\	.	1	.	.	.
16c#>\	(8C#\	2	(8e#/J	4	]
!	!LO:SIC:v:o:t=łuk między cyframi palcowania	!	!	!	!
16B>\JJ	.	1	.	.	.
.	.	2	.	.	.
*v	*v	*	*	*	*
=54	=54	=54	=54	=54
*	*	*	*^	*
4.FF#/)	.	4.A/) 4.f#/	5	1	pp
*	*	*	*v	*v	*
==	==	==	==	==
*-	*-	*-	*-	*-
!!!system-decoration: [(s1,s2)]
!!!RDF**kern: > = above
!!!RDF**kern: < = below
!!!ENC: Filip Voros
!!!END: 2022-03-11
!!!ENC: Leszek Kubiak
!!!END: 2022-03-16
!!!YEC: Copyright 2022 Narodowy Instytut Fryderyka Chopina (https://polishscores.org)
!!!YEM: Licence CC BY 4.0 (https://creativecommons.org/licenses/by/4.0)
